X:5904
T:Gan Ainm
R:Reel
S:
H:
N:
D:Trian II
Z:Adrian Scahill
M:4/4
L:1/8
K:D
A,2EA, G,B,DG|FDD2 ADFD|EDCA, G,B,DG|FDAD BDA+DE+|\
A,2EA, G,B,DG|FDD2 ADFA|BcAG (3FED CE|DFAD GFDF:||\
cAA2 EDCA|cAA Bcdc|dGGF GEDe|dGG2 BcdB|\
cAA2 EDC+DF+|EDCB, A,CEA|BDAD (3GFG ED|1 CEAB cABd:|2 CEAB cAA2||


